src/24/panel/y-ppa-indicator.svg

<svg xmlns="http://www.w3.org/2000/svg" width="24" height="24" version="1.1">
 <defs>
  <style id="current-color-scheme" type="text/css">
   .ColorScheme-Text { color:#dfdfdf; } .ColorScheme-Highlight { color:#4285f4; }
  </style>
 </defs>
 <g>
  <path style="fill:currentColor" class="ColorScheme-Text" d="M 7.53,4 C 5.5671598,4 4,5.5691747 4,7.5320149 L 4,16.469287 C 4,18.432128 5.5671598,20 7.53,20 l 8.94,0 C 18.43284,20 20,18.432128 20,16.469287 L 20,7.5320149 C 20,5.5691747 18.43284,4 16.47,4 Z M 6.001988,6.0011395 11,6 11,6.4701013 c -0.128989,0.011999 -0.209402,0 -0.373388,0 -0.539956,0.035997 -0.9379241,0.1039916 -0.9379241,0.405967 0,0.2659783 0.081993,0.5149581 0.2809771,0.7809364 L 12.47,11.53 15.125246,7.6260072 C 15.301231,7.3480299 15.375225,7.0960504 15.375225,6.9380632 15.375225,6.708082 15.18824,6.5549931 15.000256,6.47 l -0.999919,0 0,-0.4698604 3.999675,0 0,0.4698604 C 17.554048,6.505997 17.173079,6.535096 16.844106,6.8130734 16.527131,7.0790518 16.091167,7.6090086 15.56321,8.4069437 l -2.562792,4.0626693 0,4.530631 c 0.210983,0.192984 1.212902,0.518958 1.999838,0.530957 l 0,0.468962 L 9,18.000163 9,17.53 c 0.798935,-0.036 1.812015,-0.336772 2,-0.529756 L 11,12.44 8.8755,9.1878801 C 7.9595745,7.8829863 7.356476,7.1030498 7.0625,6.8130734 6.7685239,6.523097 6.4619506,6.47 5.9999882,6.47 l 0,-0.4698604 z"/>
 </g>
</svg>

<svg xmlns="http://www.w3.org/2000/svg" width="24" height="24"><defs><style id="current-color-scheme" type="text/css"></style></defs><path d="M7.53 4A3.515 3.515 0 0 0 4 7.532v8.937A3.514 3.514 0 0 0 7.53 20h8.94A3.514 3.514 0 0 0 20 16.47V7.531A3.515 3.515 0 0 0 16.47 4zM6.002 6.001L11 6v.47c-.129.012-.21 0-.373 0-.54.036-.938.104-.938.406 0 .266.082.515.28.781l2.501 3.873 2.655-3.904c.176-.278.25-.53.25-.688 0-.23-.187-.383-.375-.468h-1V6h4v.47c-.446.036-.827.065-1.156.343-.317.266-.753.796-1.28 1.594L13 12.47V17c.211.193 1.213.52 2 .531v.47H9v-.471c.799-.036 1.812-.337 2-.53v-4.56L8.876 9.188c-.916-1.305-1.52-2.085-1.813-2.375-.294-.29-.601-.343-1.063-.343V6z" fill="currentColor" color="#d3dae3"/></svg>
